packages/icons/src/SVG/move-all.svg

<!-- Generated by IcoMoon.io -->
<svg version="1.1" xmlns="http://www.w3.org/2000/svg" width="12" height="12" viewBox="0 0 12 12">
<title>move-all</title>
<path d="M9 6.75h-2v-1.5h2v-2.25l3 3-3 3v-2.25z"></path>
<path d="M9 3h-2.25v2h-1.5v-2h-2.25l3-3 3 3z"></path>
<path d="M9 9l-3 3-3-3h2.25v-2h1.5v2h2.25z"></path>
<path d="M3 6.75h2v-1.5h-2v-2.25l-3 3 3 3v-2.25z"></path>
</svg>

<svg width="12" height="12" viewBox="0 0 12 12" fill="none" xmlns="http://www.w3.org/2000/svg">
<path d="M9 6.75H7V5.25H9V3L12 6L9 9V6.75Z" fill="#4C505B"/>
<path d="M9 3L6.75 3V5H5.25V3L3 3L6 0L9 3Z" fill="#4C505B"/>
<path d="M9 9L6 12L3 9H5.25V7H6.75V9H9Z" fill="#4C505B"/>
<path d="M3 6.75H5V5.25H3L3 3L0 6L3 9L3 6.75Z" fill="#4C505B"/>
</svg>
